X:1
T:Title
%%score { ( 1 3 ) | ( 2 4 ) }
L:1/8
Q:1/4=100
M:4/4
K:Ab
V:1 treble nm="Grand Piano"
V:3 treble 
V:2 bass 
V:4 bass 
V:1
 [CE]>[DF] [CE]>[_C=D] [=CE]>[CF] [CG]>[CA] | A2 G2 G4 | E>F E>F E>G B>d | d2 c2 c4 | %4
w: Thoro~Harris * * * * * * *||||
 [CE]>[DF] [CE]>[_C=D] [=CE]>[CA] [Ec]>[_Ge] | [Fe]2 [Fd]2 [Fd]4 | c>c G>A c2 B2 | [CA]6 z2 | %8
w: ||||
 z4 [Fd]4 | z4 [Ec]4 | [GB]>[_G=A] [=GB]>[Gc] [_A=d]2 c>B | [Ge]2 [Ae]2 [Be]4 | %12
w: ||||
 e>d c>d e>c [EB]>[EA] | [EG]2 [DF]2 [Fd]4 | c>c G>A c2 B2 | [CA]6 z2 |] %16
w: ||||
V:2
 [A,,A,]>[A,,A,] [A,,A,]>[A,,A,] [A,,A,]>[A,,A,] [A,,A,]>[A,,A,] | [E,B,D]2 [E,B,D]2 [E,B,D]4 | %2
 [E,G,D]>[E,G,D] [E,G,D]>[E,G,D] [E,G,D]>[E,B,D] [E,G,D]>[K:treble][E,G,F] | %3
 [A,F]2[K:bass] [A,E]2 [A,E]4 | [A,,A,]>[A,,A,] [A,,A,]>[A,,A,] [A,,A,]>[A,,A,] [A,,A,]>[C,A,] | %5
 [D,A,]2 [D,A,]2 [D,A,]4 | [E,A,E]>[E,A,E] [E,B,D]>[E,A,C] [E,G,E]2 [E,G,D]2 | [A,,A,]6 z2 | %8
 [D,A,]2 [D,A,]2 [D,A,]>E, F,>G, | A,2 A,2 z4 | %10
 [E,E]>[E,E] [E,E]>[E,E] [F,B,]2[K:treble] [B,A]>[B,A] | [E,B,]2 [E,C]2 [E,D]4 | %12
 [A,CA]>[A,B,E] [A,E]>[A,B,E] [A,CA]>[K:bass][A,E] [B,,G,]>[C,A,] | [D,A,]2 [D,A,]2 [D,A,]4 | %14
 [E,A,E]>[E,A,E] [E,B,D]>[E,A,C] [E,G,E]2 [E,G,D]2 | [A,,A,]6 z2 |] %16
V:3
 x8 | x8 | x8 | x8 | x8 | x8 | x8 | x8 | [DF]>[D=E] [DF]>[FA] z z/ A,/ A,2 | %9
 [CE]>=D [CE]>A z z/ A,/ A,2 | x8 | x8 | x8 | x8 | x8 | x8 |] %16
V:4
 x8 | x8 | x15/2[K:treble] x/ | x2[K:bass] x6 | x8 | x8 | x8 | x8 | x8 | %9
 z z/ _C/ z z/ =C/ [A,,A,]>C, E,>A, | x6[K:treble] x2 | x8 | x11/2[K:bass] x5/2 | x8 | x8 | x8 |] %16

